X: 1
T: Bob Ritchie
C:\251 George Meikle
B: George Meikle "Originally Mine" p.21
R: jig
Z: 2010 John Chambers <jc:trillian.mit.edu>
M: 6/8
L: 1/8
K: F
F \
|: "F"CFF "F7"AFF | "Bb"DFF "Gm"B2d | "F"cAc "A/F"fcA | "Gm"BGG "C7"cBG |
   "F"CFF "F7"AFF | "Bb"DFF "Gm"B2d | "C7"cdc CDE |1 "F"AFF F2"C7"F :|2 "F"AFF F2"C7"A ||
|: "F"cAA "F7"f2c | "Bb"dBB "Gm"f2d | "F"cAc "A/F"fcA | "Gm"BGG "C7"G2c |
[1 "F"cAA "F7"f2c | "Bb"dBB "Gm"f2d | "C7"cdc CDE | "F"AFF F2"C7"c :|
[2 "F"CFF "F7"AFF | "Bb"DFF "Gm"B2d | "C7"cdc CDE | "F"AFF F3 |]
%%begintext align
Composed for the dance "Inverugie Castle" which is a 32S+32J medley devised by Joyce Elliott.   The
dance and tune were published by the RSCDS Leicester Branch in their Crystal Collection of 1992 and
was recorded by the Lothian Scottish Dance Band for a cassette to complement the  book.   The  tune
River Ugie, also composed by myself, should be used as the strathspey tune for this medley.
%%endtext

%%sep 1 1 500
%%sep 1 1 500

